app/dist/common/images/enzo-biochem.svg

<svg height="18" viewBox="0 0 18 18" width="18" xmlns="http://www.w3.org/2000/svg"><path d="m0 0h18v18h-18z" fill="#f0f3fa"/><path d="m8.5 6.55.5-1.55c-4.57 1.33-3.98 3.7-3.98 4a6.8 6.8 0 0 1 3.48-2.45z" fill="#ffe56e"/><path d="m9.5 6.94.5-1.94c-4.69 1.37-4.05 4.53-3.87 5 1.22-2.01 2.33-2.61 3.37-3.06z" fill="#609363"/><path d="m9 13.7-1 1.3c-3.82-2.47-2.93-5.85-2.87-6 .36 2.68 2.73 4.26 3.87 4.7z" fill="#f58051"/><path d="m10 13.65c-3-1.33-3.85-3.65-3.9-4.65-.62 3.28 1.71 5.37 2.95 6z" fill="#abd372"/><path d="m8 6h3.38v.33h-3.24z" fill="#a0aacb"/><path d="m7 7h5v.33h-4.88z" fill="#6275a5"/><path d="m6.23 8.67h5.54v.33h-5.42z" fill="#53699d"/><path d="m6 10h4.92v.33h-4.81z" fill="#6a7caa"/><path d="m7 11h2.15v.33h-2.05z" fill="#a1a8be"/><path d="m8.67 3-.67.99c2.1.19 3.76 2.84 3.86 3.01.16-.46.14-.64.14-.81-.33-2.13-2.36-3.02-3.33-3.19z" fill="#5a7cac"/><path d="m9.24 11.23-.24 1.77c3.27-1.8 3-4.65 3-5-.33 1.77-2.02 2.84-2.76 3.23z" fill="#6b4a9e"/><path d="m10.25 11.28-.25 1.72c3.4-1.74 2.98-4.66 2.98-5-.34 1.72-1.96 2.9-2.73 3.28z" fill="#a6d169"/></svg>

<!-- by TradingView --><svg width="18" height="18" viewBox="0 0 18 18" xmlns="http://www.w3.org/2000/svg"><path fill="#F0F3FA" d="M0 0h18v18H0z"/><path d="M8.5 6.55 9 5C4.43 6.33 5.02 8.7 5.02 9A6.8 6.8 0 0 1 8.5 6.55Z" fill="#FFE56E"/><path d="M9.5 6.94 10 5c-4.69 1.37-4.05 4.53-3.87 5C7.35 7.99 8.46 7.39 9.5 6.94Z" fill="#609363"/><path d="M9 13.7 8 15c-3.82-2.47-2.93-5.85-2.87-6 .36 2.68 2.73 4.26 3.87 4.7Z" fill="#F58051"/><path d="M10 13.65C7 12.32 6.15 10 6.1 9c-.62 3.28 1.71 5.37 2.95 6l.95-1.35Z" fill="#ABD372"/><path d="M8 6h3.38v.33H8.14L8 6Z" fill="#A0AACB"/><path d="M7 7h5v.33H7.12L7 7Z" fill="#6275A5"/><path d="M6.23 8.67h5.54V9H6.35l-.12-.33Z" fill="#53699D"/><path d="M6 10h4.92v.33H6.11L6 10Z" fill="#6A7CAA"/><path d="M7 11h2.15v.33H7.1L7 11Z" fill="#A1A8BE"/><path d="M8.67 3 8 3.99c2.1.19 3.76 2.84 3.86 3.01.16-.46.14-.64.14-.81C11.67 4.06 9.64 3.17 8.67 3Z" fill="#5A7CAC"/><path d="M9.24 11.23 9 13c3.27-1.8 3-4.65 3-5-.33 1.77-2.02 2.84-2.76 3.23Z" fill="#6B4A9E"/><path d="M10.25 11.28 10 13c3.4-1.74 2.98-4.66 2.98-5-.34 1.72-1.96 2.9-2.73 3.28Z" fill="#A6D169"/></svg>
